icon/fa/user-lock.svg

<svg xmlns="http://www.w3.org/2000/svg" viewBox="0 0 640 512"><!--! Font Awesome Free 6.1.2 by @fontawesome - https://fontawesome.com License - https://fontawesome.com/license/free (Icons: CC BY 4.0, Fonts: SIL OFL 1.1, Code: MIT License) Copyright 2022 Fonticons, Inc.--><path d="M592 288h-16v-75.3c0-41.84-30.03-80.04-71.66-84.27C456.5 123.6 416 161.1 416 208v80h-16c-26.4 0-48 21.6-48 48v128c0 26.4 21.6 48 48 48h192c26.4 0 48-21.6 48-48V336c0-26.4-21.6-48-48-48zm-96 144c-17.62 0-32-14.38-32-32s14.38-32 32-32 32 14.38 32 32-14.4 32-32 32zm32-144h-64v-80c0-17.62 14.38-32 32-32s32 14.38 32 32v80zm-304-32c70.7 0 128-57.31 128-128S294.7 0 224 0 96 57.31 96 128s57.3 128 128 128zm96 80c0-8.672 1.738-16.87 4.303-24.7C308.6 306.6 291.9 304 274.7 304H173.3C77.61 304 0 381.7 0 477.4 0 496.5 15.52 512 34.66 512h301.7C326.3 498.6 320 482.1 320 464V336z"/></svg>

<svg xmlns="http://www.w3.org/2000/svg" viewBox="0 0 640 512" height="1em" width="1em">
<!--! Font Awesome Free 6.1.2 by @fontawesome - https://fontawesome.com License - https://fontawesome.com/license/free (Icons: CC BY 4.0, Fonts: SIL OFL 1.1, Code: MIT License) Copyright 2022 Fonticons, Inc.-->
  <path d="M592 288H576V212.7c0-41.84-30.03-80.04-71.66-84.27C456.5 123.6 416 161.1 416 208V288h-16C373.6 288 352 309.6 352 336v128c0 26.4 21.6 48 48 48h192c26.4 0 48-21.6 48-48v-128C640 309.6 618.4 288 592 288zM496 432c-17.62 0-32-14.38-32-32s14.38-32 32-32s32 14.38 32 32S513.6 432 496 432zM528 288h-64V208c0-17.62 14.38-32 32-32s32 14.38 32 32V288zM224 256c70.7 0 128-57.31 128-128S294.7 0 224 0C153.3 0 96 57.31 96 128S153.3 256 224 256zM320 336c0-8.672 1.738-16.87 4.303-24.7C308.6 306.6 291.9 304 274.7 304H173.3C77.61 304 0 381.7 0 477.4C0 496.5 15.52 512 34.66 512h301.7C326.3 498.6 320 482.1 320 464V336z"/>
</svg>
